X:1
T:Athole Volunteers Quickstep, The
T:Athole Volunteers Quickstep, The
T:Niel Gow (1727-1831)
C:Niel Gow (1727-1831)
L:1/8
M:6/8
K:F
V:1 treble 
V:1
 F | C(.FF) A(.F.F) | C.F.F f2 d | cAF"^tr" E2 C | DG[DG] [EG]2 A | C(.F.F) A,(.F.F) | CFF f2 d | %7
 cAF"^tr" E2 C | D<FF F2 :| c | faf gec | d>ef cAF | B>cd cAF | DG[DG] [EG]2 c | faf gec | %15
 d>ef cAF |"^tr" B>cd cAF | CFE F2 (c/4d/4e/) | faf gec |"^tr" d>ef cAF |"^tr" B>cd cAF | %21
 DG[DG] [DG]2 A | C(.F.F) A,(.F.F) | CFF f2 d | cAF"^tr" E2 C | D<FF F2 || abc | %27

